X:17513
T:To the Weaver gin ye go
M:2/4
K:G
(ge)|\
d2(B2 B2)(AG)| B2(A2 A2)(ge)| d2B2 B3A| B6 (ge)|\
d2(B2 B2)(AG)| B2(A2 A3)B| dB3B3A| B6||
A2|\
e3e(f2g2)| a3ba2A2| d2e2f2g2| a6(ba)|\
g2e2 f2(ed)| e3f g2a2| b2B2 BcBA| B6 :|
